packages/icon/src/svg/social-twitter.icon.svg

<svg aria-label="social twitter icon" viewBox="0 0 24 24"><path fill-rule="evenodd" clip-rule="evenodd" d="M20 6.69c.88-.53 1.56-1.37 1.88-2.38-.83.5-1.75.85-2.72 1.05C18.37 4.5 17.26 4 16 4c-2.35 0-4.27 1.92-4.27 4.29 0 .34.04.67.11.98C8.28 9.09 5.11 7.38 3 4.79c-.37.63-.58 1.37-.58 2.15 0 1.49.75 2.81 1.91 3.56-.71 0-1.37-.2-1.95-.5 0 2.11 1.48 3.85 3.44 4.24a4.22 4.22 0 01-1.93.07 4.28 4.28 0 004 2.98 8.521 8.521 0 01-5.33 1.84c-.34 0-.68-.02-1.02-.06C3.44 20.29 5.7 21 8.12 21 16 21 20.33 14.46 20.33 8.79c0-.19 0-.37-.01-.56.84-.6 1.56-1.36 2.14-2.23-.77.35-1.6.58-2.46.69z"/></svg>

<svg width="24" height="24" viewBox="0 0 24 24" fill="none" xmlns="http://www.w3.org/2000/svg">
<path fill-rule="evenodd" clip-rule="evenodd" d="M20 6.69C20.88 6.16 21.56 5.32 21.88 4.31C21.05 4.81 20.13 5.16 19.16 5.36C18.37 4.5 17.26 4 16 4C13.65 4 11.73 5.92 11.73 8.29C11.73 8.63 11.77 8.96 11.84 9.27C8.28 9.09 5.11 7.38 3 4.79C2.63 5.42 2.42 6.16 2.42 6.94C2.42 8.43 3.17 9.75 4.33 10.5C3.62 10.5 2.96 10.3 2.38 10C2.38 12.11 3.86 13.85 5.82 14.24C5.46 14.34 5.08 14.39 4.69 14.39C4.42 14.39 4.15 14.36 3.89 14.31C4.43 16 6 17.26 7.89 17.29C6.43 18.45 4.58 19.13 2.56 19.13C2.22 19.13 1.88 19.11 1.54 19.07C3.44 20.29 5.7 21 8.12 21C16 21 20.33 14.46 20.33 8.79C20.33 8.6 20.33 8.42 20.32 8.23C21.16 7.63 21.88 6.87 22.46 6C21.69 6.35 20.86 6.58 20 6.69Z" fill="white"/>
</svg>
